X:1
T:Forsaken maiden - parsons
C:Taken down from Jas. Parsons by S.B.G.  Oct 1888
%%VWML:SBG-1-1-197-0
F:http://www.vwml.org/record/SBG/1/1/197
Z:Original Sibleius Transcription by Martin and Shan Graebe
M:3/4
L:1/8
K:Dm
DF | A2 A2 A>B | AF D2 AF | D2 D2 FG | A4 d2 | c2 B2 dd |
Ac c2 FG | A2 F2 GF | ED C2 A2 | F2 GF EF |D4 |
T:Forsaken maiden - at chagford
T:Taken down by F.W.B. 1891 at Chagford.
M:3/4
L:1/8
K:Fm
FA | c2 c2 ed | d>c B2 cB | [A2F2]>[G2G2] [FA][AB] | c4 FA | c2>d2 e>d |
dc B2 cB | A2 G2 F>A | c4 e2 | f2 cd e2 |dc B2 f2 | 
e2 GA B2 | A>G F2 E2 | F2 f2 g2 |f>d c2 _ed | c2 cB G2 | F6 |



